X:1
T:Heavenly Father, We Beseech Thee
T:Heavenly Father, We Beseech Thee
T:Robert Lowry
T:Frances Jane (Fanny) Crosby, 1878
T:Public Domain Courtesy of the Cyber Hymnal™
C:Robert Lowry
Z:Public Domain
Z:Courtesy of the Cyber Hymnal™
%%score ( 1 2 ) ( 3 4 )
L:1/8
Q:1/4=95
M:3/4
K:Ab
V:1 treble 
V:2 treble 
V:3 bass 
V:4 bass 
V:1
 [CA]>[DB] | [Ec]3 [CA] [Fd]>[Ec] | [Ec]2 [EB]2 [EG]>[EA] | [EB]3 [EA] [Ec]>[EB] | %4
w: 1.~Heav’n- ly|Fa- ther, we be-|seech Thee, Grant Thy|bless- ing ere we|
w: 2.~Lov- ing|Sav- ior, go Thou|with us, Be our|Com- fort and our|
w: 3.~Ho- ly|Spi- rit, dwell with-|in us, May our|souls Thy tem- ple|
w: 4.~Heav’n- ly|Fa- ther, lov- ing|Sav- ior, Ho- ly|Spir- it, Three in|
 [EA]4 [CA]>[DB] | [Ec]3 [CA] [Fd]>[Ec] | [Ec]2 [EB]2 [Ge]>[Ge] | [GB]3 [EG] [FA]>[=DF] | E4 || %9
w: part; Take us|in Thy care and|keep- ing, Guard from|e- vil ev- ery|heart.|
w: Stay; Grate- ful|praise to Thee we|ren- der For the|joy we feel to-|day.|
w: be; May we|tread the path to|glo- ry, Led and|guid- ed still by|Thee.|
w: One, As a-|mong Thy saints and|an- gels, So on|earth Thy will be|done.|
"^Refrain" E>E | [Ed]3 [Ec] [Ed]>E | [Ec]2 [Ec]2 [Ec]>[Ec] | [=Ec]3 [EG] [FA]>[CF] | %13
w: ||||
w: ||||
w: ||||
w: ||||
 [DB]4 [CA]>[DB] | [Ec]3 [CA] [Fd]>[Ec] | [_Ge]2 [Fd]2 [Fc]>[FB] | [EA]3 [Ec] [DB]>[DG] | [CA]4 |] %18
w: |||||
w: |||||
w: |||||
w: |||||
V:2
 x2 | x6 | x6 | x6 | x6 | x6 | x6 | x6 | E4 || E>E | x11/2 E/ | x6 | x6 | x6 | x6 | x6 | x6 | x4 |] %18
V:3
 [A,,A,]>[A,,A,] | [A,,A,]3 [A,,A,] [A,,A,]>[A,,A,] | [E,A,]2 [E,G,]2 [E,B,]>[E,C] | %3
w: ~ ~|~ ~ ~ ~|~ ~ ~ ~|
 [E,D]3 [E,C] [E,E]>[E,D] | [A,,C]4 [A,,A,]>[A,,A,] | [A,,A,]3 [A,,A,] [A,,A,]>[A,,A,] | %6
w: ~ ~ ~ ~|~ ~ ~|~ ~ ~ ~|
 [E,A,]2 [E,G,]2 [E,B,]>[E,B,] | [E,E]3 [E,B,] [B,,B,]>[B,,A,] | [E,G,]4 || [E,G,]>[E,G,] | %10
w: ~ ~ ~ ~|~ ~ ~ ~|~|Bless the|
 [E,B,]3 [E,=A,] [E,B,]>[E,G,] | A,2 A,2 [A,,A,]>[A,,A,] | [C,G,]3 [C,C] [F,C]>[F,A,] | %13
w: words we here have|spok- en, Of- fered|prayer and cheer- ful|
 [E,G,]4 A,>A, | A,3 A, A,>A, | [D,=A,]2 [D,B,]2 [D,E]>[D,D] | [E,C]3 [E,A,] [E,G,]>[E,B,] | %17
w: strain; If Thy|will, O Lord, we|pray Thee, Grant we|all may meet a-|
 [A,,A,]4 |] %18
w: gain.|
V:4
 x2 | x6 | x6 | x6 | x6 | x6 | x6 | x6 | x4 || x2 | x6 | A,2 A,2 x2 | x6 | x4 A,>A, | %14
 A,3 A, A,>A, | x6 | x6 | x4 |] %18

